images/energi.svg

<svg height="250" viewBox="0 0 250 250" width="250" xmlns="http://www.w3.org/2000/svg"><path d="m250 125.019531-124.996094 124.980469-125.003906-124.980469 125.039062-125.019531 78.085938 78.152344-78.121094 78.109375-31.25-31.242188 46.875-46.867187-15.625-15.621094-62.5 62.488281 62.5 62.492188 93.75-93.738281zm0 0" fill="#00e676"/></svg>

<svg xmlns="http://www.w3.org/2000/svg" xmlns:xlink="http://www.w3.org/1999/xlink" width="250px" height="250px" viewBox="0 0 250 250" version="1.1">
<g id="surface1">
<path style=" stroke:none;fill-rule:nonzero;fill:rgb(0%,90.196079%,46.27451%);fill-opacity:1;" d="M 250 125.019531 L 125.003906 250 L 0 125.019531 L 125.039062 0 L 203.125 78.152344 L 125.003906 156.261719 L 93.753906 125.019531 L 140.628906 78.152344 L 125.003906 62.53125 L 62.503906 125.019531 L 125.003906 187.511719 L 218.753906 93.773438 Z M 250 125.019531 "/>
</g>
</svg>
